X:739
T:Terpsicourante
C:Praetorius
S:Colin Hume's website,  colinhume.com  - chords can also be printed below the stave.
Q:3/8=112
M:6/8
L:1/8
%%stretchstaff 0
%%MIDI ratio 3 1
K:D
P:A
|: A | "D"d2A d2e | "/"f>ga fda | "G"g2f "Em"e2d | "A"c>de cAa | "G"g2f "Em"e2d | "A"c>de cAa |
"Em"e2f g2f | "A"e2d c2A | "G"Bcd "A7"cde | "D"d3- d2 :|
P:B
d | "A"cAe cAe | "/"cAe cAe | "D"fga "E7"^gab | "A"a3- a2a |\
"D"fda fda | "G"g3 g2f | "Em"e2d "A7"d2c | "D"d3 "A7"A3 |
"D"F>GA BAA | "/"BAA BAA | "E"^G>AB cBB | "/"cBB c^GB | "F#m"A>Bc dcc | "/"dcc dcA |
"G"B>cd edB | "/"edB edB | "A"c>de fce | "/"fce fce | "D"f>ed "A7"cdc | "D"d3- d2 |]

